X:30
T:Miss Peaches Delight. BC.30
T:Buff Coat,The? [In another hand]. BC.30
T:She Wants A Fellow. BC.30
M:6/8
L:1/8
Q:120
S:Benjamin Cooke MS.circa 1770, F.Kidson Coll.
R:Jig
O:England
A:x
D:
Z:vmp.John Bagnall
K:D
f/e/ | d2 A F>ED | EFE cBc | d2 A F2 E | FDD D2 :|
|:A | dcd .Bc.d | efd c2 A | dcd efg | fdd d3 | gfg .Bc.d |
 efd c>Bc | d2 A F2 D| EFE cBc | d2 A F2 E | FDD D3 |]

